!!!SOCIAL_FUNCTION:	songs of medicine men's dance
!!!PDT:	1956
!!!OTL: No_23_Corn_Dance_Song_(m).krn
!!!LANG: Non-Tone
!!!LING_GROUP: Muskogean
!!!REG: Florida
**kern
*staff1
=1-
*clefF4
*k[b-]
*M3/4
4c\
4c\
8.A\L
16A\Jk
=2!|:
*M2/4
2c\
=3
4c\
8.d\L
16c\Jk
=4
2A\
=5
2A\
=6||
*M3/4
4A\
4A\
4c\
=7||
*M2/4
4c\
4G\
=8
2G\
=9
4D\
8E\L
16.D\L
32D\JJk
=10||
*M3/4
2D\
4C/
=11
4AA/
4AA/
4AA/
=12||
*M2/4
4C/
4AA/
=13
4C/
8.AA/L
16AA/Jk
=14
4C/
8.D\L
16D\Jk
=15
2C/
=16
2C/
=17
4C/
4C/
=18||
*M3/4
4D\
4D\
4D\
=19||
*M2/4
2D\
=20
4D\
8.E\L
16E\Jk
=21||
*M3/4
2D\
4C/
=22||
*M2/4
4AA/
4AA/
=23||
*M3/4
4C/
4C/
4AA/
=24||
*M2/4
4C/
4r
=25
4C/
8.D\L
16D\Jk
=26
2C/
=27
4C/
4r
=28
4C/
4C/
=29||
*M3/4
4c\
4c\
4A\
==:|!
*-
